packages/astro-components-stencil/src/icons/format-strikethrough.svg

<svg xmlns="http://www.w3.org/2000/svg" viewBox="0 0 24 24"><g xmlns="http://www.w3.org/2000/svg" id="format-strikethrough" fill-rule="nonzero">
            <path d="M12 19c1.1 0 2-.9 2-2v-1h-4v1c0 1.1.9 2 2 2zM5 5.5C5 6.33 5.67 7 6.5 7H10v3h4V7h3.5c.83 0 1.5-.67 1.5-1.5S18.33 4 17.5 4h-11C5.67 4 5 4.67 5 5.5zM4 14h16c.55 0 1-.45 1-1s-.45-1-1-1H4c-.55 0-1 .45-1 1s.45 1 1 1z"/>
        </g></svg>

<svg width="24" height="24" viewBox="0 0 24 24" fill="none" xmlns="http://www.w3.org/2000/svg">
<path fill-rule="evenodd" clip-rule="evenodd" d="M5 5.5C5 6.33 5.67 7 6.5 7H10V10H14V7H17.5C18.33 7 19 6.33 19 5.5C19 4.67 18.33 4 17.5 4H6.5C5.67 4 5 4.67 5 5.5ZM12 19C13.1 19 14 18.1 14 17V16H10V17C10 18.1 10.9 19 12 19ZM20 14H4C3.45 14 3 13.55 3 13C3 12.45 3.45 12 4 12H20C20.55 12 21 12.45 21 13C21 13.55 20.55 14 20 14Z" fill="black"/>
</svg>
